X: 12513
T: Farewell To Harstad
R: reel
M: 4/4
K: Dmajor
d2 d2 c2 c2|B2 c/d A2 F2|G2 A/B F2 G/A|E2 D/E F2 E2|
d2 d2 c2 c2|B2 c/d A2 F2|G2 A/B A2 C2|D6 A2|
f2 f2 e2 e2|d2 e/d c2 f2|B2 g2|A2 f2|f2 e/d f2 e2|
f2 f2 e2 e2|d2 e/d c2 F2|G2 A/B A2 c2|d6 A2|
dFAd cEAc|BDGB AdFA|GBEG FADF|E2 ed c2 Ac|
dFAd cEAc|BDGB AdFA|GBEG FAA,C|DFGE F2 Ad|
fAdf eAce|dGBd cafc|BdGB FADF|GE ed cA B/c/d/e/|
fAdf eAce|dGBd cafc|BdGB FAA,C|DFGE F2 Ac||

